dist/images/hash.svg

<svg width="18" height="23" viewBox="0 0 18 23" fill="none" xmlns="http://www.w3.org/2000/svg">
<path d="M15.2117 8.50983L14.4117 14.8458H16.4117V18.1738H13.9637L13.3557 22.7978H9.17974L9.78774 18.1738H6.74774L6.13974 22.7978H1.96374L2.53974 18.1738H0.635742V14.8458H2.98774L3.81974 8.50983H1.81974V5.16583H4.26774L4.84374 0.621826H9.05174L8.42774 5.16583H11.4837L12.0917 0.621826H16.2677L15.6597 5.16583H17.5957V8.50983H15.2117ZM7.16374 14.8458H10.2037L11.0357 8.50983H7.99574L7.16374 14.8458Z" fill="#688CF7"/>
</svg>

<svg width="18" height="23" fill="none" xmlns="http://www.w3.org/2000/svg"><path d="M15.212 8.51l-.8 6.336h2v3.328h-2.448l-.608 4.624H9.18l.608-4.624h-3.04l-.608 4.624H1.964l.576-4.624H.636v-3.328h2.352L3.82 8.51h-2V5.166h2.448L4.844.622h4.208l-.624 4.544h3.056l.608-4.544h4.176l-.608 4.544h1.936V8.51h-2.384zm-8.048 6.336h3.04l.832-6.336h-3.04l-.832 6.336z" fill="#688CF7"/></svg>
